status/symbolic/dialog-question-symbolic.svg

<?xml version="1.0" encoding="UTF-8" standalone="no"?>
<!-- Created with Inkscape (http://www.inkscape.org/) -->

<svg
   xmlns:dc="http://purl.org/dc/elements/1.1/"
   xmlns:cc="http://creativecommons.org/ns#"
   xmlns:rdf="http://www.w3.org/1999/02/22-rdf-syntax-ns#"
   xmlns:svg="http://www.w3.org/2000/svg"
   xmlns="http://www.w3.org/2000/svg"
   xmlns:inkscape="http://www.inkscape.org/namespaces/inkscape"
   version="1.1"
   width="16"
   height="16"
   id="svg3862">
  <defs
     id="defs3864" />
  <metadata
     id="metadata3867">
    <rdf:RDF>
      <cc:Work
         rdf:about="">
        <dc:format>image/svg+xml</dc:format>
        <dc:type
           rdf:resource="http://purl.org/dc/dcmitype/StillImage" />
        <dc:title />
      </cc:Work>
    </rdf:RDF>
  </metadata>
  <path
     d="M 8,1.03125 C 4.1467,1.03125 1.03125,4.1467 1.03125,8 1.03125,11.8533 4.1467,14.96875 8,14.96875 11.8533,14.96875 14.96875,11.8533 14.96875,8 14.96875,4.1467 11.8533,1.03125 8,1.03125 z M 8.0625,3 c 0.178835,0.00335 0.3585538,0.00671 0.53125,0.03125 C 9.8219902,3.1443116 10.980383,3.9340179 11,4.9375 11.089838,5.978015 10.226448,6.8569733 9.34375,7.5625 8.5080648,8.1863423 8.3189704,9.0927843 8.34375,10 8.058771,10.054062 7.673836,10.052764 7.65625,9.9375 7.634242,9.7932343 7.6875,9.669086 7.6875,9.3125 7.6852583,8.3758439 8.2271946,7.495156 8.75,6.71875 9.272805,5.942345 9.642856,5.1513639 9.3125,4.625 8.982144,4.098635 8.200554,3.6479632 7.40625,3.84375 c -0.034111,0.00841 -0.278825,0.05624 -0.5,0.1875 -0.2646868,0.1570779 -0.494429,0.55108 -0.4375,0.75 0.049962,0.1745772 0.120062,0.351149 0.09375,0.5625 C 6.527722,5.6230822 6.3358941,5.9375 5.875,5.9375 5.0870135,5.9375 4.8589503,4.9757209 5.09375,4.4375 5.498836,3.4692093 6.8106549,2.9765366 8.0625,3 z m -0.34375,8.21875 c 0.086167,-0.0212 0.155065,-0.0053 0.25,0 0.6304789,-0.0091 1.1410731,0.609234 0.9375,1.15625 -0.1958114,0.703441 -1.34254,0.871196 -1.75,0.25 -0.3992262,-0.492299 -0.04067,-1.257866 0.5625,-1.40625 z"
     inkscape:connector-curvature="0"
     id="path10839-3"
     style="text-indent:0;text-transform:none;block-progression:tb;opacity:0.9;color:#bebebe;fill:#bebebe;fill-opacity:1;fill-rule:nonzero;stroke:none;stroke-width:1;marker:none;visibility:visible;display:inline;overflow:visible;enable-background:accumulate" />
</svg>

<?xml version="1.0" encoding="UTF-8" standalone="no"?>
<!-- Created with Inkscape (http://www.inkscape.org/) -->

<svg
   xmlns:dc="http://purl.org/dc/elements/1.1/"
   xmlns:cc="http://creativecommons.org/ns#"
   xmlns:rdf="http://www.w3.org/1999/02/22-rdf-syntax-ns#"
   xmlns:svg="http://www.w3.org/2000/svg"
   xmlns="http://www.w3.org/2000/svg"
   xmlns:sodipodi="http://sodipodi.sourceforge.net/DTD/sodipodi-0.dtd"
   xmlns:inkscape="http://www.inkscape.org/namespaces/inkscape"
   version="1.1"
   width="16"
   height="16"
   id="svg3862"
   inkscape:version="0.48.4 r9939"
   sodipodi:docname="dialog-question-symbolic.svg">
  <sodipodi:namedview
     pagecolor="#ffffff"
     bordercolor="#666666"
     borderopacity="1"
     objecttolerance="10"
     gridtolerance="10"
     guidetolerance="10"
     inkscape:pageopacity="0"
     inkscape:pageshadow="2"
     inkscape:window-width="640"
     inkscape:window-height="480"
     id="namedview7"
     showgrid="false"
     inkscape:zoom="14.75"
     inkscape:cx="8"
     inkscape:cy="8"
     inkscape:window-x="0"
     inkscape:window-y="30"
     inkscape:window-maximized="0"
     inkscape:current-layer="svg3862" />
  <defs
     id="defs3864" />
  <metadata
     id="metadata3867">
    <rdf:RDF>
      <cc:Work
         rdf:about="">
        <dc:format>image/svg+xml</dc:format>
        <dc:type
           rdf:resource="http://purl.org/dc/dcmitype/StillImage" />
        <dc:title></dc:title>
      </cc:Work>
    </rdf:RDF>
  </metadata>
  <path
     style="text-indent:0;text-transform:none;block-progression:tb;opacity:0.9;color:#bebebe;fill:#bebebe;fill-opacity:1;fill-rule:nonzero;stroke:none;stroke-width:1;marker:none;visibility:visible;display:inline;overflow:visible;enable-background:accumulate"
     d="M 8 1.03125 C 4.1467 1.03125 1.03125 4.1467 1.03125 8 C 1.03125 11.8533 4.1467 14.96875 8 14.96875 C 11.8533 14.96875 14.96875 11.8533 14.96875 8 C 14.96875 4.1467 11.8533 1.03125 8 1.03125 z M 8.0625 3 C 8.241335 3.0033519 8.4210538 3.0067121 8.59375 3.03125 C 9.8219902 3.1443116 10.980383 3.9340179 11 4.9375 C 11.089838 5.978015 10.226448 6.8569733 9.34375 7.5625 C 8.5080648 8.1863423 8.3189704 9.0927843 8.34375 10 C 8.058771 10.054062 7.673836 10.052764 7.65625 9.9375 C 7.634242 9.7932343 7.6875 9.669086 7.6875 9.3125 C 7.6852583 8.3758439 8.2271946 7.495156 8.75 6.71875 C 9.272805 5.942345 9.642856 5.1513639 9.3125 4.625 C 8.982144 4.098635 8.200554 3.6479632 7.40625 3.84375 C 7.372139 3.8521576 7.127425 3.89999 6.90625 4.03125 C 6.6415632 4.1883279 6.411821 4.58233 6.46875 4.78125 C 6.5187118 4.9558272 6.588812 5.132399 6.5625 5.34375 C 6.527722 5.6230822 6.3358941 5.9375 5.875 5.9375 C 5.0870135 5.9375 4.8589503 4.9757209 5.09375 4.4375 C 5.498836 3.4692093 6.8106549 2.9765366 8.0625 3 z M 7.71875 11.21875 C 7.8049172 11.197552 7.873815 11.213464 7.96875 11.21875 C 8.5992289 11.20962 9.1098231 11.827984 8.90625 12.375 C 8.7104386 13.078441 7.56371 13.246196 7.15625 12.625 C 6.7570238 12.132701 7.1155797 11.367134 7.71875 11.21875 z "
     id="path10839-3" />
</svg>
